**kern	**silbe	**kern	**silbe	**harmony	**chordsym	**phrase	**timestamp	**leadinstrument
*ICvox	*	*ICvox	*	*M4/4	*M4/4	*	*	*
*G:	*	*G:	*	*G:	*G:	*	*	*
*M4/4	*	*M4/4	*	*	*	*	*	*
*clefF4	*	*clefF4	*	*	*	*	*	*
r;	.	1r	.	1r;	r	.	0	r
=1	=1	=1	=1	=1	=1	=1	=1	=1
*	*	*	*	*>A_intro	*>A_intro	*>A_intro	*>A_intro	*>A_intro
1r	.	4r	.	1DMm	D:7 (D F# A C)	newline	0.488	r
.	.	4D c d	Woo,	.	.	.	.	.
.	.	4D c d	woo!	.	.	.	.	.
.	.	8D A c	_	.	.	.	.	.
.	.	8D F# A	_	.	.	.	.	.
=2	=2	=2	=2	=2	=2	=2	=2	=2
8.r	.	1r	.	1N	N	.	.	r
16F#	You	.	.	.	.	.	.	.
16A	know,	.	.	.	.	.	.	.
16F#	I'm	.	.	.	.	.	.	.
[8c	al	.	.	.	.	.	.	.
8c]	_	.	.	.	.	.	.	.
[8e	most	.	.	.	.	.	.	.
8e]	_	.	.	.	.	.	.	.
8f#	grown!	.	.	.	.	.	.	.
=3	=3	=3	=3	=3	=3	=3	=3	=3
4c	_	4r	.	1N	N	.	.	r
4r	.	4D c d	Woo,	.	.	.	.	.
2r	.	4D c d	woo!	.	.	.	.	.
.	.	8D A c	_	.	.	.	.	.
.	.	8D F# A	_	.	.	.	.	.
=4	=4	=4	=4	=4	=4	=4	=4	=4
8r	.	1r	.	1N	N	.	.	r
16r	.	.	.	.	.	.	.	.
16c	Yeah	.	.	.	.	.	.	.
16c	and	.	.	.	.	.	.	.
8c	I'm	.	.	.	.	.	.	.
16c	do-	.	.	.	.	.	.	.
16c	-in'	.	.	.	.	.	.	.
16c	al-	.	.	.	.	.	.	.
8c	-right	.	.	.	.	.	.	.
16c	in	.	.	.	.	.	.	.
16c	school!	.	.	.	.	.	.	.
[8d	_	.	.	.	.	.	.	.
=5	=5	=5	=5	=5	=5	=5	=5	=5
*	*	*	*	*>B_verse	*>B_verse	*>B_verse	*>B_verse	*>B_verse
4d]	_	4r	.	1GMm	G:7 (G B D F)	newline	6.593	voice
4r	.	[4B [d [g	Hi	.	.	.	.	.
2r	.	4B] d] g]	_	.	.	.	.	.
.	.	8A c e	de-	.	.	.	.	.
.	.	8G B d	-way!	.	.	.	.	.
=6	=6	=6	=6	=6	=6	=6	=6	=6
8r	.	4r	.	1GMm	G:7 (G B D F)	.	.	voice
8d	They	.	.	.	.	.	.	.
8B	ain't	8r	.	.	.	.	.	.
8c	said	8B d	Woo,	.	.	.	.	.
6B	I	4r	.	.	.	.	.	.
6c	broke	.	.	.	.	.	.	.
.	.	4B d	woo!	.	.	.	.	.
6B	no	.	.	.	.	.	.	.
=7	=7	=7	=7	=7	=7	=7	=7	=7
16c	rule!	4r	.	1GMm	G:7 (G B D F)	.	.	voice
8.d	_	.	.	.	.	.	.	.
4r	.	[4B [d [g	Hi	.	.	.	.	.
2r	.	4B] d] g]	_	.	.	.	.	.
.	.	8A c e	de-	.	.	.	.	.
.	.	8G B d	-way!	.	.	.	.	.
=8	=8	=8	=8	=8	=8	=8	=8	=8
8r	.	4r	.	1GMm	G:7 (G B D F)	.	.	voice
8g	I	.	.	.	.	.	.	.
8d-	ain't	8r	.	.	.	.	.	.
8c	ne-	8B d	Woo,	.	.	.	.	.
8B	-ver	4r	.	.	.	.	.	.
8c	been	.	.	.	.	.	.	.
8B	in	4B d	woo!	.	.	.	.	.
[8c	Dutch!	.	.	.	.	.	.	.
=9	=9	=9	=9	=9	=9	=9	=9	=9
4c]	_	4r	.	1CMm	C:7 (C E G B-)	newline	12.756	voice
4r	.	[4B- [d [g	Hi	.	.	.	.	.
2r	.	4B-] d] g]	_	.	.	.	.	.
.	.	8A c e	de-	.	.	.	.	.
.	.	8G B- d	-way!	.	.	.	.	.
=10	=10	=10	=10	=10	=10	=10	=10	=10
8r	.	4r	.	1CMm	C:7 (C E G B-)	.	.	voice
8d-	I	.	.	.	.	.	.	.
8.c	don't	8r	.	.	.	.	.	.
.	.	8B- d	Woo,	.	.	.	.	.
[16c	browse	.	.	.	.	.	.	.
16c]	_	4r	.	.	.	.	.	.
16B-	a-	.	.	.	.	.	.	.
[8c	-round	.	.	.	.	.	.	.
8c]	_	4B- d	woo!	.	.	.	.	.
8B	too	.	.	.	.	.	.	.
=11	=11	=11	=11	=11	=11	=11	=11	=11
16c	much!	4r	.	1GMm	G:7 (G B D F)	.	.	voice
8.d	_	.	.	.	.	.	.	.
2.r	.	[4B [d [g	Hi	.	.	.	.	.
.	.	4B] d] g]	_	.	.	.	.	.
.	.	8A c e	de-	.	.	.	.	.
.	.	8G B d	-way!	.	.	.	.	.
=12	=12	=12	=12	=12	=12	=12	=12	=12
8r	.	4r	.	1GMm	G:7 (G B D F)	.	.	voice
[8g	Don't	.	.	.	.	.	.	.
8.g]	_	8r	.	.	.	.	.	.
.	.	8B d	Woo,	.	.	.	.	.
[16c	bo	.	.	.	.	.	.	.
16c]	_	4r	.	.	.	.	.	.
16c	ther	.	.	.	.	.	.	.
16B	me,	.	.	.	.	.	.	.
[16c	leave	.	.	.	.	.	.	.
16c]	_	4B d	woo!	.	.	.	.	.
16c	me	.	.	.	.	.	.	.
16B	a-	.	.	.	.	.	.	.
[16c	-lone!	.	.	.	.	.	.	.
=13	=13	=13	=13	=13	=13	=13	=13	=13
16c]	_	4r	.	1DMm	D:7 (D F# A C)	newline	18.918	voice
8.d	_	.	.	.	.	.	.	.
4r	.	4B d	Ha,	.	.	.	.	.
2r	.	4B d f#	woo,	.	.	.	.	.
.	.	8B d f#	woo!	.	.	.	.	.
.	.	8A c e	_	.	.	.	.	.
=14	=14	=14	=14	=14	=14	=14	=14	=14
8r	.	4r	.	1CMm	C:7 (C E G B-)	.	.	voice
16f	A-	.	.	.	.	.	.	.
16d	-ny-	.	.	.	.	.	.	.
8.c	-way,	8r	.	.	.	.	.	.
.	.	8B- d	Woo,	.	.	.	.	.
[16c	I'm	.	.	.	.	.	.	.
8c]	_	4r	.	.	.	.	.	.
[8c	al	.	.	.	.	.	.	.
16c]	_	4B- d	woo!	.	.	.	.	.
8.c	most	.	.	.	.	.	.	.
=15	=15	=15	=15	=15	=15	=15	=15	=15
8c	grown!	4r	.	1GMm	G:7 (G B D F)	.	.	voice
8d	_	.	.	.	.	.	.	.
4r	.	[4B [d [g	Hi	.	.	.	.	.
2r	.	4B] d] g]	_	.	.	.	.	.
.	.	4A c e	de-	.	.	.	.	.
=16	=16	=16	=16	=16	=16	=16	=16	=16
8r	.	4G B d	-way!	1GMm	G:7 (G B D F)	.	.	voice
16r	.	.	.	.	.	.	.	.
16d	I	.	.	.	.	.	.	.
8B	don't	4r	.	.	.	.	.	.
16c	run	.	.	.	.	.	.	.
16B	a-	.	.	.	.	.	.	.
8c	-round	2r	.	.	.	.	.	.
16B	with	.	.	.	.	.	.	.
[16c	no	.	.	.	.	.	.	.
16c]	_	.	.	.	.	.	.	.
16c	mob!	.	.	.	.	.	.	.
8d	_	.	.	.	.	.	.	.
=17	=17	=17	=17	=17	=17	=17	=17	=17
*	*	*	*	*>B_verse	*>B_verse	*>B_verse	*>B_verse	*>B_verse
1r	.	4r	.	1GMm	G:7 (G B D F)	newline	25.063	voice
.	.	[4B [d [g	Hi	.	.	.	.	.
.	.	4B] d] g]	_	.	.	.	.	.
.	.	8A c e	de-	.	.	.	.	.
.	.	8G B d	-way!	.	.	.	.	.
=18	=18	=18	=18	=18	=18	=18	=18	=18
6r	.	4r	.	1GMm	G:7 (G B D F)	.	.	voice
6d	Got	.	.	.	.	.	.	.
.	.	8r	.	.	.	.	.	.
6B	my-	.	.	.	.	.	.	.
.	.	8B d	Woo,	.	.	.	.	.
8c	-self	4r	.	.	.	.	.	.
8B	a	.	.	.	.	.	.	.
16c	lit-	4B d	woo!	.	.	.	.	.
16B	-tle	.	.	.	.	.	.	.
[8d	job!	.	.	.	.	.	.	.
=19	=19	=19	=19	=19	=19	=19	=19	=19
4d]	_	4r	.	1GMm	G:7 (G B D F)	.	.	voice
4r	.	[4B [d [g	Hi	.	.	.	.	.
2r	.	4B] d] g]	_	.	.	.	.	.
.	.	8A c e	de-	.	.	.	.	.
.	.	8G B d	-way!	.	.	.	.	.
=20	=20	=20	=20	=20	=20	=20	=20	=20
8r	.	4r	.	1GMm	G:7 (G B D F)	.	.	voice
8G	I'm	.	.	.	.	.	.	.
8B	gon'	8r	.	.	.	.	.	.
[8c	buy	8B d	Woo,	.	.	.	.	.
12c]	_	4r	.	.	.	.	.	.
12c	me	.	.	.	.	.	.	.
12B	a	.	.	.	.	.	.	.
12c	lit-	4B d	woo!	.	.	.	.	.
12B	-tle	.	.	.	.	.	.	.
[12d	car!	.	.	.	.	.	.	.
=21	=21	=21	=21	=21	=21	=21	=21	=21
4d]	_	4r	.	1CMm	C:7 (C E G B-)	newline	31.398	voice
4r	.	[4B- [d [g	Hi	.	.	.	.	.
2r	.	4B-] d] g]	_	.	.	.	.	.
.	.	8A c e	de-	.	.	.	.	.
.	.	8G B- d	-way!	.	.	.	.	.
=22	=22	=22	=22	=22	=22	=22	=22	=22
4r	.	4r	.	1CMm	C:7 (C E G B-)	.	.	voice
6c	Drive	8r	.	.	.	.	.	.
.	.	8B- d	Woo,	.	.	.	.	.
6c	my	.	.	.	.	.	.	.
.	.	4r	.	.	.	.	.	.
6c	girl	.	.	.	.	.	.	.
12c	in	4B- d	woo!	.	.	.	.	.
12c	the	.	.	.	.	.	.	.
12c	park!	.	.	.	.	.	.	.
=23	=23	=23	=23	=23	=23	=23	=23	=23
4d	_	4r	.	1GMm	G:7 (G B D F)	.	.	voice
4r	.	[4B [d [g	Hi	.	.	.	.	.
2r	.	4B] d] g]	_	.	.	.	.	.
.	.	8A c e	de-	.	.	.	.	.
.	.	8G B d	-way!	.	.	.	.	.
=24	=24	=24	=24	=24	=24	=24	=24	=24
8r	.	4r	.	1GMm	G:7 (G B D F)	.	.	voice
[8f#	Don't	.	.	.	.	.	.	.
8f#]	_	8r	.	.	.	.	.	.
16c	bo-	8B d	Woo,	.	.	.	.	.
16c	-ther	.	.	.	.	.	.	.
8B	us,	4r	.	.	.	.	.	.
8c	leave	.	.	.	.	.	.	.
8B	us	4B d	woo!	.	.	.	.	.
8c	'lone!	.	.	.	.	.	.	.
=25	=25	=25	=25	=25	=25	=25	=25	=25
4d	_	4r	.	1DMm	D:7 (D F# A C)	newline	37.62	voice
4r	.	4B d f#	Woo,	.	.	.	.	.
2r	.	4B d f#	woo,	.	.	.	.	.
.	.	8B d f#	woo!	.	.	.	.	.
.	.	8A c e	_	.	.	.	.	.
=26	=26	=26	=26	=26	=26	=26	=26	=26
8r	.	4r	.	1CMm	C:7 (C E G B-)	.	.	voice
16f	A-	.	.	.	.	.	.	.
16d	-ny-	.	.	.	.	.	.	.
8.c	-way,	8r	.	.	.	.	.	.
.	.	8B- d	Woo,	.	.	.	.	.
[16c	I'm	.	.	.	.	.	.	.
8c]	_	4r	.	.	.	.	.	.
[8c	al	.	.	.	.	.	.	.
16c]	_	4B- d	woo!	.	.	.	.	.
8.c	most	.	.	.	.	.	.	.
=27	=27	=27	=27	=27	=27	=27	=27	=27
8c	grown!	4r	.	1GMm	G:7 (G B D F)	.	.	voice
8d	_	.	.	.	.	.	.	.
4r	.	[4B [d [g	Hi	.	.	.	.	.
2r	.	4B] d] g]	_	.	.	.	.	.
.	.	4A c e	de-	.	.	.	.	.
=28	=28	=28	=28	=28	=28	=28	=28	=28
1r	.	8G B d	-way,	1GMm	G:7 (G B D F)	.	.	voice
.	.	8D B d	ta-	.	.	.	.	.
.	.	8D c d	-tack-	.	.	.	.	.
.	.	8D c d	-a-	.	.	.	.	.
.	.	8D c d	-tack-	.	.	.	.	.
.	.	8D c d	-a-	.	.	.	.	.
.	.	8D c d	-tack-	.	.	.	.	.
.	.	8D c d	-a...	.	.	.	.	.
=29	=29	=29	=29	=29	=29	=29	=29	=29
*	*	*	*	*>B_solo	*>B_solo	*>B_solo	*>B_solo	*>B_solo
1r	.	4r	.	1GMm	G:7 (G B D F)	newline	43.806	piano
.	.	[4B [d [g	Hi	.	.	.	.	.
.	.	4B] d] g]	_	.	.	.	.	.
.	.	8A c e	de-	.	.	.	.	.
.	.	8G B d	-way!	.	.	.	.	.
=30	=30	=30	=30	=30	=30	=30	=30	=30
1r	.	4r	.	1GMm	G:7 (G B D F)	.	.	piano
.	.	8r	.	.	.	.	.	.
.	.	8B d	Woo,	.	.	.	.	.
.	.	4r	.	.	.	.	.	.
.	.	4B d	woo!	.	.	.	.	.
=31	=31	=31	=31	=31	=31	=31	=31	=31
1r	.	4r	.	1GMm	G:7 (G B D F)	.	.	piano
.	.	[4B [d [g	Hi	.	.	.	.	.
.	.	4B] d] g]	_	.	.	.	.	.
.	.	8A c e	de-	.	.	.	.	.
.	.	8G B d	-way!	.	.	.	.	.
=32	=32	=32	=32	=32	=32	=32	=32	=32
1r	.	4r	.	1GMm	G:7 (G B D F)	.	.	piano
.	.	8r	.	.	.	.	.	.
.	.	8B d	Woo,	.	.	.	.	.
.	.	4r	.	.	.	.	.	.
.	.	4B d	woo!	.	.	.	.	.
=33	=33	=33	=33	=33	=33	=33	=33	=33
1r	.	4r	.	1CMm	C:7 (C E G B-)	newline	50.069	piano
.	.	[4B- [d [g	Hi	.	.	.	.	.
.	.	4B-] d] g]	_	.	.	.	.	.
.	.	8A c e	de-	.	.	.	.	.
.	.	8G B- d	-way!	.	.	.	.	.
=34	=34	=34	=34	=34	=34	=34	=34	=34
4r	.	4r	.	1CMm	C:7 (C E G B-)	.	.	piano
8r	.	8r	.	.	.	.	.	.
8ee	Oh!	8B- d	Woo,	.	.	.	.	.
2r	.	4r	.	.	.	.	.	.
.	.	4B- d	woo!	.	.	.	.	.
=35	=35	=35	=35	=35	=35	=35	=35	=35
1r	.	4r	.	1GMm	G:7 (G B D F)	.	.	piano
.	.	[4B [d [g	Hi	.	.	.	.	.
.	.	4B] d] g]	_	.	.	.	.	.
.	.	8A c e	de-	.	.	.	.	.
.	.	8G B d	-way!	.	.	.	.	.
=36	=36	=36	=36	=36	=36	=36	=36	=36
4r	.	4r	.	1GMm	G:7 (G B D F)	.	.	piano
8r	.	8r	.	.	.	.	.	.
8a-	Woo!	8B d	Woo,	.	.	.	.	.
2r	.	4r	.	.	.	.	.	.
.	.	4B d	woo!	.	.	.	.	.
=37	=37	=37	=37	=37	=37	=37	=37	=37
1r	.	4r	.	1DMm	D:7 (D F# A C)	newline	56.431	piano
.	.	4B d	Woo,	.	.	.	.	.
.	.	4B d f#	woo,	.	.	.	.	.
.	.	8B d f#	woo!	.	.	.	.	.
.	.	8A c e	_	.	.	.	.	.
=38	=38	=38	=38	=38	=38	=38	=38	=38
1r	.	4r	.	1CMm	C:7 (C E G B-)	.	.	piano
.	.	8r	.	.	.	.	.	.
.	.	8B- d	Woo,	.	.	.	.	.
.	.	4r	.	.	.	.	.	.
.	.	4B- d	woo!	.	.	.	.	.
=39	=39	=39	=39	=39	=39	=39	=39	=39
1r	.	4r	.	1GMm	G:7 (G B D F)	.	.	piano
.	.	[4B [d [g	Hi	.	.	.	.	.
.	.	4B] d] g]	_	.	.	.	.	.
.	.	4A c e	de-	.	.	.	.	.
=40	=40	=40	=40	=40	=40	=40	=40	=40
6r	.	4G B d	-way!	1GMm	G:7 (G B D F)	.	.	piano
6c	Got	.	.	.	.	.	.	.
.	.	4r	.	.	.	.	.	.
6c	my	.	.	.	.	.	.	.
12c	eye	2r	.	.	.	.	.	.
12c	on	.	.	.	.	.	.	.
12B	a	.	.	.	.	.	.	.
12c	lit-	.	.	.	.	.	.	.
12B	-tle	.	.	.	.	.	.	.
12c	girl!	.	.	.	.	.	.	.
=41	=41	=41	=41	=41	=41	=41	=41	=41
*	*	*	*	*>B_verse	*>B_verse	*>B_verse	*>B_verse	*>B_verse
4d	_	4r	.	1GMm	G:7 (G B D F)	newline	62.756	voice
4r	.	[4B [d [g	Hi	.	.	.	.	.
2r	.	4B] d] g]	_	.	.	.	.	.
.	.	8A c e	de-	.	.	.	.	.
.	.	8G B d	-way!	.	.	.	.	.
=42	=42	=42	=42	=42	=42	=42	=42	=42
8r	.	4r	.	1GMm	G:7 (G B D F)	.	.	voice
[8B	Ah,	.	.	.	.	.	.	.
4B]	_	8r	.	.	.	.	.	.
.	.	8B d	Woo,	.	.	.	.	.
8c	she's	4r	.	.	.	.	.	.
16c	real-	.	.	.	.	.	.	.
16c	-ly	.	.	.	.	.	.	.
8c	out	4B d	woo!	.	.	.	.	.
[8B	this	.	.	.	.	.	.	.
=43	=43	=43	=43	=43	=43	=43	=43	=43
8B]	_	4r	.	1GMm	G:7 (G B D F)	.	.	voice
16c	world!	.	.	.	.	.	.	.
[16d	_	.	.	.	.	.	.	.
4d]	_	[4B [d [g	Hi	.	.	.	.	.
2r	.	4B] d] g]	_	.	.	.	.	.
.	.	8A c e	de-	.	.	.	.	.
.	.	8G B d	-way!	.	.	.	.	.
=44	=44	=44	=44	=44	=44	=44	=44	=44
4r	.	4r	.	1GMm	G:7 (G B D F)	.	.	voice
12r	.	8r	.	.	.	.	.	.
12B	When	.	.	.	.	.	.	.
.	.	8B d	Woo,	.	.	.	.	.
[12B	I	.	.	.	.	.	.	.
8.B]	_	4r	.	.	.	.	.	.
16c	take	.	.	.	.	.	.	.
16B	her	4B d	woo!	.	.	.	.	.
16c	to	.	.	.	.	.	.	.
8B	a	.	.	.	.	.	.	.
=45	=45	=45	=45	=45	=45	=45	=45	=45
16c	dance,	4r	.	1CMm	C:7 (C E G B-)	newline	69.132	voice
8.d	_	.	.	.	.	.	.	.
4r	.	[4B- [d [g	Hi	.	.	.	.	.
2r	.	4B-] d] g]	_	.	.	.	.	.
.	.	8A c e	de-	.	.	.	.	.
.	.	8G B- d	-way!	.	.	.	.	.
=46	=46	=46	=46	=46	=46	=46	=46	=46
8r	.	4r	.	1CMm	C:7 (C E G B-)	.	.	voice
8c	she	.	.	.	.	.	.	.
16f#	stea-	8r	.	.	.	.	.	.
8d-	-dy	.	.	.	.	.	.	.
.	.	8B- d	Woo,	.	.	.	.	.
[16c	talk	.	.	.	.	.	.	.
16c]	_	4r	.	.	.	.	.	.
8B	a-	.	.	.	.	.	.	.
[16c	-bout	.	.	.	.	.	.	.
16c]	_	4B- d	woo!	.	.	.	.	.
8.B	ro-	.	.	.	.	.	.	.
=47	=47	=47	=47	=47	=47	=47	=47	=47
16c	-mance!	4r	.	1GMm	G:7 (G B D F)	.	.	voice
8.d	_	.	.	.	.	.	.	.
4r	.	[4B [d [g	Hi	.	.	.	.	.
2r	.	4B] d] g]	_	.	.	.	.	.
.	.	8A c e	de-	.	.	.	.	.
.	.	8G B d	-way!	.	.	.	.	.
=48	=48	=48	=48	=48	=48	=48	=48	=48
8r	.	4r	.	1GMm	G:7 (G B D F)	.	.	voice
[8f#	Don't	.	.	.	.	.	.	.
8.f#]	_	8r	.	.	.	.	.	.
.	.	8B d	Woo,	.	.	.	.	.
16c	bo-	.	.	.	.	.	.	.
16c	-ther	4r	.	.	.	.	.	.
8B	us,	.	.	.	.	.	.	.
8c	leave	.	.	.	.	.	.	.
.	.	4B d	woo!	.	.	.	.	.
16.B	us	.	.	.	.	.	.	.
32c	'lone!	.	.	.	.	.	.	.
16r	.	.	.	.	.	.	.	.
=49	=49	=49	=49	=49	=49	=49	=49	=49
4d	_	4r	.	1DMm	D:7 (D F# A C)	newline	75.374	voice
4r	.	4B d	Woo,	.	.	.	.	.
2r	.	4B d f#	woo,	.	.	.	.	.
.	.	8B d f#	woo!	.	.	.	.	.
.	.	8A c e	_	.	.	.	.	.
=50	=50	=50	=50	=50	=50	=50	=50	=50
8r	.	4r	.	1CMm	C:7 (C E G B-)	.	.	voice
16f	A-	.	.	.	.	.	.	.
16d	-ny-	.	.	.	.	.	.	.
8.c	-way,	8r	.	.	.	.	.	.
.	.	8B- d	Woo,	.	.	.	.	.
[16c	we	.	.	.	.	.	.	.
8c]	_	4r	.	.	.	.	.	.
[8c	al	.	.	.	.	.	.	.
16c]	_	4B- d	woo!	.	.	.	.	.
8.c	most	.	.	.	.	.	.	.
=51	=51	=51	=51	=51	=51	=51	=51	=51
8c	grown!	4r	.	1GMm	G:7 (G B D F)	.	.	voice
8d	_	.	.	.	.	.	.	.
4r	.	[4B [d [g	Hi	.	.	.	.	.
2r	.	4B] d] g]	_	.	.	.	.	.
.	.	4A c e	de-	.	.	.	.	.
=52	=52	=52	=52	=52	=52	=52	=52	=52
1r	.	8G B d	-way,	1GMm	G:7 (G B D F)	.	.	voice
.	.	8D B d	ta-	.	.	.	.	.
.	.	8D c d	-tack-	.	.	.	.	.
.	.	8D c d	-a-	.	.	.	.	.
.	.	8D c d	-tack-	.	.	.	.	.
.	.	8D c d	-a-	.	.	.	.	.
.	.	8D c d	-tack-	.	.	.	.	.
.	.	8D c d	-a...	.	.	.	.	.
=53	=53	=53	=53	=53	=53	=53	=53	=53
*	*	*	*	*>B_solo	*>B_solo	*>B_solo	*>B_solo	*>B_solo
1r	.	4r	.	1GMm	G:7 (G B D F)	newline	81.688	guitar
.	.	[4B [d [g	Hi	.	.	.	.	.
.	.	4B] d] g]	_	.	.	.	.	.
.	.	8A c e	de-	.	.	.	.	.
.	.	8G B d	-way!	.	.	.	.	.
=54	=54	=54	=54	=54	=54	=54	=54	=54
1r	.	4r	.	1GMm	G:7 (G B D F)	.	.	guitar
.	.	8r	.	.	.	.	.	.
.	.	8B d	Woo,	.	.	.	.	.
.	.	4r	.	.	.	.	.	.
.	.	4B d	woo!	.	.	.	.	.
=55	=55	=55	=55	=55	=55	=55	=55	=55
1r	.	4r	.	1GMm	G:7 (G B D F)	.	.	guitar
.	.	[4B [d [g	Hi	.	.	.	.	.
.	.	4B] d] g]	_	.	.	.	.	.
.	.	8A c e	de-	.	.	.	.	.
.	.	8G B d	-way!	.	.	.	.	.
=56	=56	=56	=56	=56	=56	=56	=56	=56
1r	.	4r	.	1GMm	G:7 (G B D F)	.	.	guitar
.	.	8r	.	.	.	.	.	.
.	.	8B d	Woo,	.	.	.	.	.
.	.	4r	.	.	.	.	.	.
.	.	4B d	woo!	.	.	.	.	.
=57	=57	=57	=57	=57	=57	=57	=57	=57
1r	.	4r	.	1CMm	C:7 (C E G B-)	newline	88.035	guitar
.	.	[4B- [d [g	Hi	.	.	.	.	.
.	.	4B-] d] g]	_	.	.	.	.	.
.	.	8A c e	de-	.	.	.	.	.
.	.	8G B- d	-way!	.	.	.	.	.
=58	=58	=58	=58	=58	=58	=58	=58	=58
1r	.	4r	.	1CMm	C:7 (C E G B-)	.	.	guitar
.	.	8r	.	.	.	.	.	.
.	.	8B- d	Woo,	.	.	.	.	.
.	.	4r	.	.	.	.	.	.
.	.	4B- d	woo!	.	.	.	.	.
=59	=59	=59	=59	=59	=59	=59	=59	=59
1r	.	4r	.	1GMm	G:7 (G B D F)	.	.	guitar
.	.	[4B [d [g	Hi	.	.	.	.	.
.	.	4B] d] g]	_	.	.	.	.	.
.	.	8A c e	de-	.	.	.	.	.
.	.	8G B d	-way!	.	.	.	.	.
=60	=60	=60	=60	=60	=60	=60	=60	=60
1r	.	4r	.	1GMm	G:7 (G B D F)	.	.	guitar
.	.	8r	.	.	.	.	.	.
.	.	8B d	Woo,	.	.	.	.	.
.	.	4r	.	.	.	.	.	.
.	.	4B d	woo!	.	.	.	.	.
=61	=61	=61	=61	=61	=61	=61	=61	=61
1r	.	4r	.	1DMm	D:7 (D F# A C)	newline	94.403	guitar
.	.	4B d	Woo,	.	.	.	.	.
.	.	4B d f#	woo,	.	.	.	.	.
.	.	8B d f#	woo!	.	.	.	.	.
.	.	8A c e	_	.	.	.	.	.
=62	=62	=62	=62	=62	=62	=62	=62	=62
1r	.	4r	.	1CMm	C:7 (C E G B-)	.	.	guitar
.	.	8r	.	.	.	.	.	.
.	.	8B- d	Woo,	.	.	.	.	.
.	.	4r	.	.	.	.	.	.
.	.	4B- d	woo!	.	.	.	.	.
=63	=63	=63	=63	=63	=63	=63	=63	=63
1r	.	4r	.	1GMm	G:7 (G B D F)	.	.	guitar
.	.	[4B [d [g	Hi	.	.	.	.	.
.	.	4B] d] g]	_	.	.	.	.	.
.	.	4A c e	de-	.	.	.	.	.
=64	=64	=64	=64	=64	=64	=64	=64	=64
8r	.	4A c d	-way!	1GMm	G:7 (G B D F)	.	.	guitar
8G	You	.	.	.	.	.	.	.
16G	know	4r	.	.	.	.	.	.
8B	I'm	.	.	.	.	.	.	.
16c	still	.	.	.	.	.	.	.
16c	li-	2r	.	.	.	.	.	.
16c	-vin'	.	.	.	.	.	.	.
8c	in	.	.	.	.	.	.	.
8c	town!	.	.	.	.	.	.	.
[8d	_	.	.	.	.	.	.	.
=65	=65	=65	=65	=65	=65	=65	=65	=65
*	*	*	*	*>B_verse	*>B_verse	*>B_verse	*>B_verse	*>B_verse
4d]	_	4r	.	1GMm	G:7 (G B D F)	newline	100.846	voice
4r	.	[4B [d [g	Hi	.	.	.	.	.
2r	.	4B] d] g]	_	.	.	.	.	.
.	.	8A c e	de-	.	.	.	.	.
.	.	8G B d	-way!	.	.	.	.	.
=66	=66	=66	=66	=66	=66	=66	=66	=66
8r	.	4r	.	1GMm	G:7 (G B D F)	.	.	voice
16G	But	.	.	.	.	.	.	.
16G	I	.	.	.	.	.	.	.
8B	done	8r	.	.	.	.	.	.
8c	mar-	8B d	Woo,	.	.	.	.	.
8c	-ried	4r	.	.	.	.	.	.
8B	and	.	.	.	.	.	.	.
12c	set-	4B d	woo!	.	.	.	.	.
12B	-tled	.	.	.	.	.	.	.
12c	down!	.	.	.	.	.	.	.
=67	=67	=67	=67	=67	=67	=67	=67	=67
4d	_	4r	.	1GMm	G:7 (G B D F)	.	.	voice
4r	.	[4B [d [g	Hi	.	.	.	.	.
2r	.	4B] d] g]	_	.	.	.	.	.
.	.	8A c e	de-	.	.	.	.	.
.	.	8G B d	-way!	.	.	.	.	.
=68	=68	=68	=68	=68	=68	=68	=68	=68
8r	.	4r	.	1GMm	G:7 (G B D F)	.	.	voice
8c	Now	.	.	.	.	.	.	.
8d	I	8r	.	.	.	.	.	.
8d	real-	8B d	Woo,	.	.	.	.	.
8c	-ly	4r	.	.	.	.	.	.
8c	have	.	.	.	.	.	.	.
8B	a	4B d	woo!	.	.	.	.	.
8c	ball!	.	.	.	.	.	.	.
=69	=69	=69	=69	=69	=69	=69	=69	=69
4d	_	4r	.	1CMm	C:7 (C E G B-)	newline	107.214	voice
4r	.	[4B- [d [g	Hi	.	.	.	.	.
2r	.	4B-] d] g]	_	.	.	.	.	.
.	.	8A c e	de-	.	.	.	.	.
.	.	8G B- d	-way!	.	.	.	.	.
=70	=70	=70	=70	=70	=70	=70	=70	=70
8r	.	4r	.	1CMm	C:7 (C E G B-)	.	.	voice
16d-	So	.	.	.	.	.	.	.
16d-	I	.	.	.	.	.	.	.
8.c	don't	8r	.	.	.	.	.	.
.	.	8B- d	Woo,	.	.	.	.	.
[16c	browse	.	.	.	.	.	.	.
16c]	_	4r	.	.	.	.	.	.
16B-	a-	.	.	.	.	.	.	.
[8c	-round	.	.	.	.	.	.	.
8c]	_	4B- d	woo!	.	.	.	.	.
8B	at	.	.	.	.	.	.	.
=71	=71	=71	=71	=71	=71	=71	=71	=71
16c	all!	4r	.	1GMm	G:7 (G B D F)	.	.	voice
8.d	_	.	.	.	.	.	.	.
2.r	.	[4B [d [g	Hi	.	.	.	.	.
.	.	4B] d] g]	_	.	.	.	.	.
.	.	8A c e	de-	.	.	.	.	.
.	.	8G B d	-way!	.	.	.	.	.
=72	=72	=72	=72	=72	=72	=72	=72	=72
8r	.	4r	.	1GMm	G:7 (G B D F)	.	.	voice
[8f#	Don't	.	.	.	.	.	.	.
8f#]	_	8r	.	.	.	.	.	.
8c	bo-	8B d	Woo,	.	.	.	.	.
8c	-ther	4r	.	.	.	.	.	.
8B	us,	.	.	.	.	.	.	.
8c	leave	4B d	woo!	.	.	.	.	.
8B	us	.	.	.	.	.	.	.
=73	=73	=73	=73	=73	=73	=73	=73	=73
4d	'lone!	4r	.	1DMm	D:7 (D F# A C)	newline	113.643	voice
2.r	.	4B d f#	Woo,	.	.	.	.	.
.	.	4B d f#	woo,	.	.	.	.	.
.	.	8B d f#	woo!	.	.	.	.	.
.	.	8A c e	_	.	.	.	.	.
=74	=74	=74	=74	=74	=74	=74	=74	=74
8r	.	4r	.	1CMm	C:7 (C E G B-)	.	.	voice
16f	A-	.	.	.	.	.	.	.
16d	-ny-	.	.	.	.	.	.	.
8.c	-way,	8r	.	.	.	.	.	.
.	.	8B- d	Woo,	.	.	.	.	.
[16c	we	.	.	.	.	.	.	.
8c]	_	4r	.	.	.	.	.	.
[8c	al	.	.	.	.	.	.	.
16c]	_	4B- d	woo!	.	.	.	.	.
8.c	most	.	.	.	.	.	.	.
=75	=75	=75	=75	=75	=75	=75	=75	=75
8c	grown!	4r	.	1GMm	G:7 (G B D F)	.	.	voice
8d	_	.	.	.	.	.	.	.
4r	.	[4B [d [g	Hi	.	.	.	.	.
2r	.	4B] d] g]	_	.	.	.	.	.
.	.	4A c e	de-	.	.	.	.	.
=76	=76	=76	=76	=76	=76	=76	=76	=76
1r	.	8G B d	-way,	1GMm	G:7 (G B D F)	.	.	voice
.	.	8D B d	ta-	.	.	.	.	.
.	.	8D c d	-tack-	.	.	.	.	.
.	.	8D c d	-a-	.	.	.	.	.
.	.	8D c d	-tack-	.	.	.	.	.
.	.	8D c d	-a-	.	.	.	.	.
.	.	8D c d	-tack-	.	.	.	.	.
.	.	8D c d	-a...	.	.	.	.	.
=77	=77	=77	=77	=77	=77	=77	=77	=77
*	*	*	*	*>B_solo	*>B_solo	*>B_solo	*>B_solo	*>B_solo
1r	.	4r	.	1GMm	G:7 (G B D F)	newline	119.956	piano
.	.	[4B [d [g	Hi	.	.	.	.	.
.	.	4B] d] g]	_	.	.	.	.	.
.	.	8A c e	de-	.	.	.	.	.
.	.	8G B d	-way!	.	.	.	.	.
=78	=78	=78	=78	=78	=78	=78	=78	=78
1r	.	4r	.	1GMm	G:7 (G B D F)	.	.	piano
.	.	8r	.	.	.	.	.	.
.	.	8B d	Woo,	.	.	.	.	.
.	.	4r	.	.	.	.	.	.
.	.	4B d	woo!	.	.	.	.	.
=79	=79	=79	=79	=79	=79	=79	=79	=79
1r	.	4r	.	1GMm	G:7 (G B D F)	.	.	piano
.	.	[4B [d [g	Hi	.	.	.	.	.
.	.	4B] d] g]	_	.	.	.	.	.
.	.	8A c e	de-	.	.	.	.	.
.	.	8G B d	-way!	.	.	.	.	.
=80	=80	=80	=80	=80	=80	=80	=80	=80
4r	.	4r	.	1GMm	G:7 (G B D F)	.	.	piano
8r	.	8r	.	.	.	.	.	.
8dd	Oh!	8B d	Woo,	.	.	.	.	.
2r	.	4r	.	.	.	.	.	.
.	.	4B d	woo!	.	.	.	.	.
=81	=81	=81	=81	=81	=81	=81	=81	=81
1r	.	4r	.	1CMm	C:7 (C E G B-)	newline	126.376	piano
.	.	[4B- [d [g	Hi	.	.	.	.	.
.	.	4B-] d] g]	_	.	.	.	.	.
.	.	8A c e	de-	.	.	.	.	.
.	.	8G B- d	-way!	.	.	.	.	.
=82	=82	=82	=82	=82	=82	=82	=82	=82
1r	.	4r	.	1CMm	C:7 (C E G B-)	.	.	piano
.	.	8r	.	.	.	.	.	.
.	.	8B- d	Woo,	.	.	.	.	.
.	.	4r	.	.	.	.	.	.
.	.	4B- d	woo!	.	.	.	.	.
=83	=83	=83	=83	=83	=83	=83	=83	=83
1r	.	4r	.	1GMm	G:7 (G B D F)	.	.	piano
.	.	[4B [d [g	Hi	.	.	.	.	.
.	.	4B] d] g]	_	.	.	.	.	.
.	.	8A c e	de-	.	.	.	.	.
.	.	8G B d	-way!	.	.	.	.	.
=84	=84	=84	=84	=84	=84	=84	=84	=84
1r	.	4r	.	1GMm	G:7 (G B D F)	.	.	piano
.	.	8r	.	.	.	.	.	.
.	.	8B d	Woo,	.	.	.	.	.
.	.	4r	.	.	.	.	.	.
.	.	4B d	woo!	.	.	.	.	.
=85	=85	=85	=85	=85	=85	=85	=85	=85
1r	.	4r	.	1DMm	D:7 (D F# A C)	newline	132.684	piano
.	.	4B d	Woo,	.	.	.	.	.
.	.	4B d f#	woo,	.	.	.	.	.
.	.	8B d f#	woo!	.	.	.	.	.
.	.	8A c e	_	.	.	.	.	.
=86	=86	=86	=86	=86	=86	=86	=86	=86
1r	.	4r	.	1CMm	C:7 (C E G B-)	.	.	piano
.	.	8r	.	.	.	.	.	.
.	.	8B- d	Woo,	.	.	.	.	.
.	.	4r	.	.	.	.	.	.
.	.	4B- d	woo!	.	.	.	.	.
=87	=87	=87	=87	=87	=87	=87	=87	=87
1r	.	4r	.	1GMm	G:7 (G B D F)	.	.	piano
.	.	[4B [d [g	Hi	.	.	.	.	.
.	.	4B] d] g]	_	.	.	.	.	.
.	.	4A c e	de-	.	.	.	.	.
=88	=88	=88	=88	=88	=88	=88	=88	=88
1r	.	4G B d	-way!	1GMm	G:7 (G B D F)	.	.	piano
.	.	4r	.	.	.	.	.	.
.	.	2r	.	.	.	.	.	.
r;	.	r;	.	1r;	r	.	138.646	r
r;	.	r;	.	1r;	r	.	141.27	r
*-	*-	*-	*-	*-	*-	*-	*-	*-
!!!BillboardChartDate: 1959/06/01
!!!BillboardPeak: 32
!!!BillboardWeeksOnChart: 12
!!!COC: Chuck Berry
!!!ENC: Nathaniel Condit-Schultz
!!!EST: Awating manual error checking and editing.
!!!OTL: Almost Grown
!!!RDF**chordsym: original McGill chord annotation + (implied pitch class set, with bass pitch in first position)
!!!RDF**harmony: **recip + pitch class of root + harmonic quality
!!!RDF**leadinstrument: original McGill primary instrumentation annotation
!!!RDF**phrase: newline = linebreak in original McGill transcription
!!!RDF**timestamp: McGill audio timestamp in seconds
!!!RDT: 2017/01/12/
!!!SampleActualRank: 40
!!!SampleID#: 0792
!!!SampleTargetRank: 38
